apps/scalable/pinegrow.svg

<?xml version="1.0" standalone="no"?><!-- Generator: Gravit.io --><svg xmlns="http://www.w3.org/2000/svg" xmlns:xlink="http://www.w3.org/1999/xlink" style="isolation:isolate" viewBox="0 0 256 256" width="256" height="256"><g id="Group" filter="url(#rJCiI3Es4wszPEiUZZ5MfdorAMkPTlGW)"><linearGradient id="_lgradient_236" x1="1.457167719820518e-16" y1="0.5" x2="-3.7980247890051124e-17" y2="1.4999999999999998" gradientTransform="matrix(244.648,0,0,228.338,5.68,11.95)" gradientUnits="userSpaceOnUse"><stop offset="0%" stop-opacity="1" style="stop-color:rgb(7,179,255)"/><stop offset="100%" stop-opacity="1" style="stop-color:rgb(0,125,232)"/></linearGradient><path d=" M 165.689 11.95 C 239.745 11.95 250.328 22.507 250.328 96.494 L 250.328 155.745 C 250.328 229.731 239.745 240.288 165.689 240.288 L 90.319 240.288 C 16.264 240.288 5.68 229.731 5.68 155.745 L 5.68 96.494 C 5.68 22.507 16.264 11.95 90.319 11.95 L 165.689 11.95 L 165.689 11.95 Z " id="Path" fill="url(#_lgradient_236)"/></g><defs><filter id="rJCiI3Es4wszPEiUZZ5MfdorAMkPTlGW" x="-200%" y="-200%" width="400%" height="400%" filterUnits="objectBoundingBox" color-interpolation-filters="sRGB"><feGaussianBlur xmlns="http://www.w3.org/2000/svg" in="SourceGraphic" stdDeviation="4.294"/><feOffset xmlns="http://www.w3.org/2000/svg" dx="0" dy="4" result="pf_100_offsetBlur"/><feFlood xmlns="http://www.w3.org/2000/svg" flood-color="#000000" flood-opacity="0.4"/><feComposite xmlns="http://www.w3.org/2000/svg" in2="pf_100_offsetBlur" operator="in" result="pf_100_dropShadow"/><feBlend xmlns="http://www.w3.org/2000/svg" in="SourceGraphic" in2="pf_100_dropShadow" mode="normal"/></filter></defs><defs><filter id="IB7dGzENzUS1qgOX2hXJiS4HcuLpZB9i" x="-200%" y="-200%" width="400%" height="400%" filterUnits="objectBoundingBox" color-interpolation-filters="sRGB"><feGaussianBlur xmlns="http://www.w3.org/2000/svg" in="SourceGraphic" stdDeviation="0.429"/><feOffset xmlns="http://www.w3.org/2000/svg" dx="0" dy="2" result="pf_100_offsetBlur"/><feFlood xmlns="http://www.w3.org/2000/svg" flood-color="#000000" flood-opacity="0.1"/><feComposite xmlns="http://www.w3.org/2000/svg" in2="pf_100_offsetBlur" operator="in" result="pf_100_dropShadow"/><feBlend xmlns="http://www.w3.org/2000/svg" in="SourceGraphic" in2="pf_100_dropShadow" mode="normal"/></filter></defs><g opacity="0.9" filter="url(#IB7dGzENzUS1qgOX2hXJiS4HcuLpZB9i)"><path d=" M 189.866 146.779 L 181.717 156.594 C 180.44 158.157 177.408 158.775 175.609 157.851 L 151.159 145.281 C 151.106677 145.245761 151.051482 145.214986 150.994 145.189 C 151.044837 145.15219 151.100318 145.122264 151.159 145.1 L 171.914 133.96 C 174.075 132.807 178.432 132.807 180.601 133.948 L 182.866 135.153 C 185.705 136.659 189.456 139.667 190.906 141.598 C 191.52 142.422 191.424 144.9 189.866 146.779 Z  M 155.601 188.112 C 154.336 189.655 151.412 190.205 149.661 189.253 L 148.601 188.671 L 144.617 186.458 C 144.399314 186.349268 144.196628 186.2128 144.014 186.052 C 144.131 185.928 144.316 185.783 144.585 185.606 L 171.456 169.028 L 155.601 188.112 L 155.601 188.112 Z  M 108.452 192.1 C 105.765 192.1 101.733 190.197 100.006 188.112 L 92.677 179.281 C 92.211 178.695 92.006 178.076 92.119 177.518 C 92.223 176.96 92.645 176.458 93.304 176.116 L 98.179 173.494 C 99.239 172.936 100.777 172.598 102.428 172.598 C 104.091 172.598 105.729 172.96 106.798 173.546 L 140.484 192.1 L 108.452 192.1 L 108.452 192.1 Z  M 72.697 155.165 L 94.906 167.084 C 95.018 167.149 95.111 167.201 95.187 167.241 C 95.098488 167.302067 95.004403 167.354634 94.906 167.398 L 90.038 170.012 C 89.44 170.325 88.709 170.498 87.914 170.498 C 86.392 170.498 84.862 169.855 84.022 168.847 L 72.697 155.165 L 72.697 155.165 Z  M 65.601 140.41 L 80.263 120.859 C 81.432 119.293 84.259 118.631 86.01 119.546 L 98.247 125.839 C 98.32 125.876 98.38 125.904 98.428 125.936 C 98.373556 125.979029 98.312407 126.012813 98.247 126.036 L 70.059 141.241 C 68.432 142.116 66.372 142.675 64.793 142.675 C 64.669 142.675 64.569 142.675 64.464 142.655 C 64.589 142.137 64.91 141.321 65.601 140.41 L 65.601 140.41 Z  M 88.388 110.012 L 99.585 95.1 C 100.368 94.064 101.826 93.39 103.308 93.39 C 104.018 93.39 104.693 93.538 105.255 93.839 L 115.348 99.217 L 115.352 99.217 L 131.577 107.855 C 131.597 107.855 131.609 107.867 131.625 107.88 C 131.713 107.916 131.789 107.976 131.846 108.012 C 131.781 108.052 131.697 108.108 131.601 108.153 L 110.215 119.614 C 109.107 120.197 107.428 120.55 105.717 120.55 C 104.042 120.55 102.48 120.237 101.412 119.695 L 89.175 113.39 C 88.488 113.048 88.038 112.514 87.894 111.904 C 87.757 111.297 87.934 110.635 88.388 110.012 L 88.388 110.012 Z  M 107.802 84.426 C 115.34 74.904 124.653 64.032 128.01 61.273 C 130.034 62.699 134.34 67.096 138.034 71.606 C 138.512 72.185 138.709 72.811 138.589 73.378 C 138.484 73.936 138.055 74.418 137.404 74.787 L 113.789 87.337 C 111.649 87.972 108.814 87.904 107.561 87.245 C 107.275 87.084 107.123 86.896 107.063 86.594 C 106.958 86.133 107.107 85.309 107.802 84.426 L 107.802 84.426 Z  M 154.336 92.859 C 154.802 93.482 154.978 94.169 154.842 94.795 C 154.701 95.438 154.255 95.984 153.569 96.357 L 143.528 101.735 C 141.38 102.9 137.03 102.9 134.862 101.759 L 134.854 101.747 L 118.593 93.096 C 118.502646 93.058507 118.416502 93.01158 118.336 92.956 C 118.412 92.916 118.504 92.859 118.593 92.807 L 140.673 80.912 C 142.38 79.988 145.147 80.61 146.312 82.161 L 154.336 92.859 L 154.336 92.859 Z  M 178.404 124.936 L 171.926 121.482 C 171.906 121.482 171.906 121.482 171.902 121.466 L 146.822 108.129 C 146.818 108.12 146.806 108.12 146.785 108.12 C 146.697 108.064 146.617 108.028 146.557 107.976 C 146.617 107.936 146.705 107.88 146.806 107.827 L 156.834 102.446 C 158.544 101.538 161.32 102.161 162.484 103.691 L 178.404 124.936 L 178.404 124.936 Z  M 143.396 139.944 C 141.737 139.944 140.171 139.631 139.099 139.068 L 113.48 125.896 C 113.42 125.863 113.364 125.839 113.308 125.799 C 113.364 125.783 113.42 125.743 113.48 125.707 L 134.862 114.249 C 137.022 113.1 141.376 113.084 143.549 114.225 L 143.565 114.225 L 168.705 127.618 C 168.785 127.643 168.842 127.679 168.906 127.719 C 168.826 127.771 168.737 127.815 168.649 127.867 L 147.89 139 C 146.785 139.59 145.103 139.944 143.396 139.944 L 143.396 139.944 Z  M 168.557 161.996 C 168.757 162.116 168.93 162.221 169.047 162.305 C 168.900531 162.437701 168.741822 162.55623 168.573 162.659 L 140.958 179.719 C 138.958 180.96 134.793 181.056 132.729 179.912 L 110.131 167.478 C 110.016817 167.422508 109.908019 167.35656 109.806 167.281 C 109.898 167.225 110.002 167.165 110.131 167.084 L 139.203 151.506 C 141.376 150.341 145.806 150.313 147.994 151.43 L 157.079 156.1 L 168.557 161.996 L 168.557 161.996 Z  M 73.316 147.635 C 73.221026 147.601714 73.13167 147.55417 73.051 147.494 L 73.332 147.321 L 101.528 132.133 C 103.689 130.964 108.131 130.924 110.308 132.052 L 135.93 145.229 C 135.991595 145.251629 136.049802 145.282583 136.103 145.321 C 136.039852 145.340498 135.981096 145.372084 135.93 145.414 L 106.87 160.988 C 104.701 162.161 100.344 162.161 98.179 160.988 L 73.316 147.635 L 73.316 147.635 Z  M 196.444 137.442 C 195.275 135.892 193.283 134.036 191.119 132.345 C 191.119 130.357 189.781 128.57 189.191 127.771 L 168.014 99.546 C 166.476 97.51 164.223 96.076 161.685 95.458 C 161.975451 93.056406 161.325007 90.635607 159.87 88.703 L 151.838 78 C 150.291 75.928 148.01 74.502 145.44 73.876 C 145.661 71.55 144.978 69.165 143.376 67.217 C 132.536 54 128.97 54 127.81 54 C 126.139 54 123.047 54 102.38 80.133 C 100.773 82.173 100.034 84.586 100.195 86.888 C 97.737 87.55 95.549 88.952 94.047 90.956 L 82.862 105.863 C 81.413776 107.78499 80.764859 110.19254 81.051 112.582 C 78.508 113.229 76.263 114.659 74.725 116.715 L 60.063 136.261 C 57.974 139.044 57.103 142.133 57.669 144.699 C 57.795953 145.24398 57.99575 145.769372 58.263 146.261 C 58.127 148.382 59.677 150.293 60.424 151.189 L 78.701 173.253 C 80.324 175.201 82.661 176.562 85.247 177.133 C 85.067 179.438 85.773 181.779 87.368 183.691 L 94.689 192.526 C 97.749 196.225 103.665 199 108.452 199 L 147.147 199 C 150.697 199 152.336 197.819 153.091 196.526 C 156.175 196.209 159.034 194.803 160.93 192.542 L 178.444 171.438 C 179.753 169.859 181.717 167.068 181.99 164.422 C 183.966 163.715 185.757 162.578 187.051 161.016 L 195.179 151.189 C 198.593 147.08 199.139 141.044 196.444 137.442 L 196.444 137.442 Z " id="Compound Path" fill="rgb(255,255,255)"/></g><g opacity="0.4"><linearGradient id="_lgradient_237" x1="0.5166666666666668" y1="0" x2="0.5166666666666666" y2="1.0000000000000002" gradientTransform="matrix(244.65,0,0,228.34,5.68,11.95)" gradientUnits="userSpaceOnUse"><stop offset="0%" stop-opacity="1" style="stop-color:rgb(255,255,255)"/><stop offset="12.5%" stop-opacity="0.09803922" style="stop-color:rgb(255,255,255)"/><stop offset="92.500001%" stop-opacity="0.09803922" style="stop-color:rgb(0,0,0)"/><stop offset="100%" stop-opacity="0.49803922" style="stop-color:rgb(0,0,0)"/></linearGradient><path d=" M 165.06803 11.951234 C 169.395994 11.941409 173.723944 11.990533 178.051908 12.088781 C 181.927398 12.167379 185.802873 12.31475 189.678362 12.540721 C 193.1309 12.737216 196.583423 13.022134 200.026115 13.395476 C 203.085193 13.729518 206.144271 14.181458 209.173842 14.741469 C 211.888645 15.242533 214.57394 15.881143 217.219897 16.6573 C 219.619947 17.354858 221.970814 18.219439 224.242988 19.241215 C 226.357793 20.184394 228.384061 21.304417 230.302129 22.591462 C 232.141505 23.829383 233.862851 25.244151 235.436659 26.80629 C 237.000621 28.378252 238.417046 30.087764 239.656409 31.924995 C 240.944972 33.840824 242.066305 35.864728 243.020409 37.967229 C 244.043389 40.246576 244.908985 42.584873 245.617197 44.972292 C 246.394255 47.615155 247.033606 50.297317 247.535265 53.008956 C 248.095924 56.034984 248.548399 59.080665 248.882828 62.13617 C 249.256611 65.574836 249.541856 69.013506 249.738578 72.462003 C 249.964823 76.323139 250.112361 80.194101 250.200884 84.055237 C 250.289421 88.378131 250.338591 92.701032 250.32876 97.014106 L 250.32876 155.225886 C 250.338591 159.54878 250.289421 163.861854 250.200884 168.184747 C 250.112361 172.05571 249.964823 175.916853 249.738578 179.777981 C 249.541856 183.226485 249.256611 186.674975 248.882828 190.103826 C 248.548399 193.15933 248.095924 196.214835 247.535265 199.240851 C 247.033606 201.942664 246.394255 204.624837 245.617197 207.267703 C 244.908985 209.655115 244.043389 212.003235 243.020409 214.272755 C 242.066305 216.38509 240.944972 218.399156 239.656409 220.314999 C 238.417046 222.152226 237.000621 223.871561 235.436659 225.433697 C 233.862851 226.995832 232.141505 228.410601 230.302129 229.648532 C 228.384061 230.935575 226.357793 232.055598 224.242988 232.998768 C 221.970814 234.020552 219.619947 234.885137 217.219897 235.592507 C 214.57394 236.368672 211.888645 237.007276 209.173842 237.498515 C 206.144271 238.068354 203.085193 238.510465 200.026115 238.844519 C 196.583423 239.21785 193.1309 239.502777 189.678362 239.699269 C 185.802873 239.925235 181.927398 240.072615 178.051908 240.161035 C 173.723944 240.249454 169.395994 240.298581 165.06803 240.288762 L 90.941963 240.288762 C 86.614006 240.298581 82.286049 240.249454 77.9581 240.161035 C 74.08261 240.072615 70.20712 239.925235 66.331638 239.699269 C 62.879108 239.502777 59.426578 239.21785 55.983886 238.844519 C 52.924808 238.510465 49.865733 238.068354 46.836162 237.498515 C 44.121356 237.007276 41.436057 236.368672 38.7901 235.592507 C 36.390053 234.885137 34.039187 234.020552 31.767009 232.998768 C 29.652213 232.055598 27.625943 230.935575 25.707871 229.648532 C 23.868489 228.410601 22.147143 226.995832 20.573343 225.433697 C 19.009377 223.871561 17.592955 222.152226 16.353586 220.314999 C 15.065036 218.399156 13.943701 216.38509 12.989584 214.272755 C 11.966612 212.003235 11.101021 209.655115 10.392811 207.267703 C 9.615746 204.624837 8.976389 201.942664 8.47474 199.240851 C 7.914072 196.214835 7.461604 193.15933 7.127172 190.103826 C 6.753394 186.674975 6.468142 183.226485 6.271417 179.777981 C 6.045183 175.916853 5.897639 172.05571 5.809112 168.184747 C 5.720586 163.861854 5.671405 159.54878 5.681241 155.225886 L 5.681241 97.014106 C 5.671405 92.701032 5.720586 88.378131 5.809112 84.055237 C 5.897639 80.194101 6.045183 76.323139 6.271417 72.462003 C 6.468142 69.013506 6.753394 65.574836 7.127172 62.13617 C 7.461604 59.080665 7.914072 56.034984 8.47474 53.008956 C 8.976389 50.297317 9.615746 47.615155 10.392811 44.972292 C 11.101021 42.584873 11.966612 40.246576 12.989584 37.967229 C 13.943701 35.864728 15.065036 33.840824 16.353586 31.924995 C 17.592955 30.087764 19.009377 28.378252 20.573343 26.80629 C 22.147143 25.244151 23.868489 23.829383 25.707871 22.591462 C 27.625943 21.304417 29.652213 20.184394 31.767009 19.241215 C 34.039187 18.219439 36.390053 17.354858 38.7901 16.6573 C 41.436057 15.881143 44.121356 15.242533 46.836162 14.741469 C 49.865733 14.181458 52.924808 13.729518 55.983886 13.395476 C 59.426578 13.022134 62.879108 12.737216 66.331638 12.540721 C 70.20712 12.31475 74.08261 12.167379 77.9581 12.088781 C 82.286049 11.990533 86.614006 11.941409 90.941963 11.951234 L 165.06803 11.951234 Z  M 165.077876 15.959741 C 169.376317 15.949916 173.674759 15.99904 177.973216 16.087463 C 181.799522 16.175886 185.625827 16.323257 189.452133 16.539402 C 192.835809 16.735898 196.219486 17.010992 199.583486 17.384332 C 202.554026 17.698726 205.514751 18.131016 208.445953 18.681203 C 211.023049 19.152792 213.580483 19.761928 216.098564 20.498786 C 218.321569 21.147221 220.495374 21.952852 222.600334 22.896029 C 224.508571 23.750785 226.338116 24.762737 228.069293 25.922059 C 229.692286 27.012609 231.207063 28.260355 232.59398 29.645648 C 233.980897 31.030941 235.230091 32.543956 236.331763 34.165043 C 237.492434 35.894202 238.505568 37.711787 239.361333 39.607968 C 240.305606 41.720292 241.112187 43.891565 241.761369 46.102139 C 242.508934 48.617282 243.108947 51.161898 243.590914 53.735987 C 244.131912 56.663768 244.564709 59.6112 244.889308 62.578282 C 245.263091 65.938355 245.538505 69.308252 245.735227 72.687976 C 245.951626 76.509812 246.10901 80.321821 246.187687 84.143656 C 246.276225 88.437084 246.325394 92.720685 246.325394 97.014106 C 246.325394 97.014106 246.325394 97.014106 246.325394 97.014106 L 246.325394 155.225886 C 246.325394 155.225886 246.325394 155.225886 246.325394 155.225886 C 246.325394 159.519306 246.276225 163.802907 246.187687 168.096328 C 246.10901 171.918164 245.951626 175.739999 245.735227 179.552015 C 245.538505 182.931739 245.263091 186.301629 244.889308 189.671533 C 244.564709 192.628784 244.131912 195.576216 243.590914 198.503994 C 243.108947 201.078094 242.508934 203.622706 241.761369 206.137845 C 241.112187 208.358253 240.305606 210.5197 239.361333 212.63202 C 238.505568 214.528209 237.492434 216.355617 236.331763 218.074952 C 235.230091 219.705853 233.980897 221.218876 232.59398 222.604172 C 231.207063 223.979634 229.692286 225.227385 228.069293 226.317935 C 226.338116 227.477251 224.508571 228.489201 222.600334 229.343951 C 220.495374 230.296956 218.321569 231.092775 216.098564 231.741198 C 213.580483 232.478056 211.023049 233.087202 208.445953 233.558787 C 205.514751 234.108972 202.554026 234.541264 199.583486 234.865483 C 196.219486 235.228995 192.835809 235.513922 189.452133 235.70058 C 185.625827 235.916726 181.799522 236.073926 177.973216 236.152526 C 173.674759 236.25078 169.376317 236.290072 165.077876 236.290072 C 165.077876 236.290072 165.077876 236.290072 165.06803 236.290072 L 90.941963 236.290072 C 90.932125 236.290072 90.932125 236.290072 90.932125 236.290072 C 86.633683 236.290072 82.335234 236.25078 78.036784 236.152526 C 74.210479 236.073926 70.384173 235.916726 66.557868 235.70058 C 63.174195 235.513922 59.790522 235.228995 56.426518 234.865483 C 53.455967 234.541264 50.495253 234.108972 47.564048 233.558787 C 44.986944 233.087202 42.429517 232.478056 39.911433 231.741198 C 37.688439 231.092775 35.514626 230.296956 33.409665 229.343951 C 31.501429 228.489201 29.671886 227.477251 27.940703 226.317935 C 26.31772 225.227385 24.802935 223.979634 23.416022 222.604172 C 22.029109 221.218876 20.779904 219.705853 19.678243 218.074952 C 18.517564 216.355617 17.504428 214.528209 16.648674 212.63202 C 15.704392 210.5197 14.897819 208.358253 14.248626 206.137845 C 13.50107 203.622706 12.901057 201.078094 12.419081 198.503994 C 11.878086 195.576216 11.445291 192.628784 11.120694 189.671533 C 10.746916 186.301629 10.471501 182.931739 10.274776 179.552015 C 10.058378 175.739999 9.900997 171.918164 9.822307 168.096328 C 9.733781 163.802907 9.6846 159.519306 9.6846 155.225886 C 9.6846 155.225886 9.6846 155.225886 9.6846 155.225886 L 9.6846 97.014106 C 9.6846 97.014106 9.6846 97.014106 9.6846 97.014106 C 9.6846 92.720685 9.733781 88.437084 9.822307 84.143656 C 9.900997 80.321821 10.058378 76.509812 10.274776 72.687976 C 10.471501 69.308252 10.746916 65.938355 11.120694 62.578282 C 11.445291 59.6112 11.878086 56.663768 12.419081 53.735987 C 12.901057 51.161898 13.50107 48.617282 14.248626 46.102139 C 14.897819 43.891565 15.704392 41.720292 16.648674 39.607968 C 17.504428 37.711787 18.517564 35.894202 19.678243 34.165043 C 20.779904 32.543956 22.029109 31.030941 23.416022 29.645648 C 24.802935 28.260355 26.31772 27.012609 27.940703 25.922059 C 29.671886 24.762737 31.501429 23.750785 33.409665 22.896029 C 35.514626 21.952852 37.688439 21.147221 39.911433 20.498786 C 42.429517 19.761928 44.986944 19.152792 47.564048 18.681203 C 50.495253 18.131016 53.455967 17.698726 56.426518 17.384332 C 59.790522 17.010992 63.174195 16.735898 66.557868 16.539402 C 70.384173 16.323257 74.210479 16.175886 78.036784 16.087463 C 82.335234 15.99904 86.633683 15.949916 90.932125 15.959741 C 90.932125 15.959741 90.932125 15.959741 90.941963 15.959741 L 165.06803 15.959741 C 165.077876 15.959741 165.077876 15.959741 165.077876 15.959741 Z " fill-rule="evenodd" id="highlight" fill="url(#_lgradient_237)"/></g></svg>

<svg xmlns="http://www.w3.org/2000/svg" style="isolation:isolate" width="256" height="256"><defs><filter id="a" width="270.648" height="254.338" x="-7.32" y="2.95" filterUnits="userSpaceOnUse"><feGaussianBlur xmlns="http://www.w3.org/2000/svg" in="SourceGraphic" stdDeviation="4.294"/><feOffset xmlns="http://www.w3.org/2000/svg" dy="4" result="pf_100_offsetBlur"/><feFlood xmlns="http://www.w3.org/2000/svg" flood-opacity=".4"/><feComposite xmlns="http://www.w3.org/2000/svg" in2="pf_100_offsetBlur" operator="in" result="pf_100_dropShadow"/><feBlend xmlns="http://www.w3.org/2000/svg" in="SourceGraphic" in2="pf_100_dropShadow"/></filter></defs><g filter="url(#a)"><linearGradient id="b" x2="0" y1=".5" y2="1.5" gradientTransform="matrix(244.648 0 0 228.338 5.68 11.95)" gradientUnits="userSpaceOnUse"><stop offset="0%" stop-color="#07b3ff"/><stop offset="100%" stop-color="#007de8"/></linearGradient><path fill="url(#b)" d="M165.689 11.95c74.056 0 84.639 10.557 84.639 84.544v59.251c0 73.986-10.583 84.543-84.639 84.543h-75.37c-74.055 0-84.639-10.557-84.639-84.543V96.494c0-73.987 10.584-84.544 84.639-84.544h75.37z"/></g><g opacity=".4"><linearGradient id="c" x1=".517" x2=".517" y2="1"><stop offset="0%" stop-color="#fff"/><stop offset="12.5%" stop-opacity=".098" stop-color="#fff"/><stop offset="92.5%" stop-opacity=".098"/><stop offset="100%" stop-opacity=".498"/></linearGradient><path fill="none" stroke="url(#c)" stroke-linecap="round" stroke-linejoin="round" stroke-width="4.077" d="M165.685 11.947c74.055 0 84.639 10.557 84.639 84.544v59.251c0 73.986-10.584 84.543-84.639 84.543h-75.37c-74.055 0-84.639-10.557-84.639-84.543V96.491c0-73.987 10.584-84.544 84.639-84.544h75.37z" vector-effect="non-scaling-stroke"/></g><defs><filter id="d" width="144.652" height="149" x="55.5" y="54" filterUnits="userSpaceOnUse"><feGaussianBlur xmlns="http://www.w3.org/2000/svg" in="SourceGraphic" stdDeviation=".429"/><feOffset xmlns="http://www.w3.org/2000/svg" dy="2" result="pf_100_offsetBlur"/><feFlood xmlns="http://www.w3.org/2000/svg" flood-opacity=".1"/><feComposite xmlns="http://www.w3.org/2000/svg" in2="pf_100_offsetBlur" operator="in" result="pf_100_dropShadow"/><feBlend xmlns="http://www.w3.org/2000/svg" in="SourceGraphic" in2="pf_100_dropShadow"/></filter></defs><path fill="#FFF" d="M189.866 146.779l-8.149 9.815c-1.277 1.563-4.309 2.181-6.108 1.257l-24.45-12.57a1.125 1.125 0 0 0-.165-.092.712.712 0 0 1 .165-.089l20.755-11.14c2.161-1.153 6.518-1.153 8.687-.012l2.265 1.205c2.839 1.506 6.59 4.514 8.04 6.445.614.824.518 3.302-1.04 5.181zm-34.265 41.333c-1.265 1.543-4.189 2.093-5.94 1.141l-1.06-.582-3.984-2.213a2.818 2.818 0 0 1-.603-.406c.117-.124.302-.269.571-.446l26.871-16.578-15.855 19.084zm-47.149 3.988c-2.687 0-6.719-1.903-8.446-3.988l-7.329-8.831c-.466-.586-.671-1.205-.558-1.763.104-.558.526-1.06 1.185-1.402l4.875-2.622c1.06-.558 2.598-.896 4.249-.896 1.663 0 3.301.362 4.37.948l33.686 18.554h-32.032zm-35.755-36.935l22.209 11.919c.112.065.205.117.281.157a1.707 1.707 0 0 1-.281.157l-4.868 2.614c-.598.313-1.329.486-2.124.486-1.522 0-3.052-.643-3.892-1.651l-11.325-13.682zm-7.096-14.755l14.662-19.551c1.169-1.566 3.996-2.228 5.747-1.313l12.237 6.293c.073.037.133.065.181.097a.633.633 0 0 1-.181.1l-28.188 15.205c-1.627.875-3.687 1.434-5.266 1.434-.124 0-.224 0-.329-.02.125-.518.446-1.334 1.137-2.245zm22.787-30.398L99.585 95.1c.783-1.036 2.241-1.71 3.723-1.71.71 0 1.385.148 1.947.449l10.093 5.378h.004l16.225 8.638c.02 0 .032.012.048.025.088.036.164.096.221.132-.065.04-.149.096-.245.141l-21.386 11.461c-1.108.583-2.787.936-4.498.936-1.675 0-3.237-.313-4.305-.855l-12.237-6.305c-.687-.342-1.137-.876-1.281-1.486-.137-.607.04-1.269.494-1.892zm19.414-25.586c7.538-9.522 16.851-20.394 20.208-23.153 2.024 1.426 6.33 5.823 10.024 10.333.478.579.675 1.205.555 1.772-.105.558-.534 1.04-1.185 1.409l-23.615 12.55c-2.14.635-4.975.567-6.228-.092-.286-.161-.438-.349-.498-.651-.105-.461.044-1.285.739-2.168zm46.534 8.433c.466.623.642 1.31.506 1.936-.141.643-.587 1.189-1.273 1.562l-10.041 5.378c-2.148 1.165-6.498 1.165-8.666.024l-.008-.012-16.261-8.651a1.39 1.39 0 0 1-.257-.14c.076-.04.168-.097.257-.149l22.08-11.895c1.707-.924 4.474-.302 5.639 1.249l8.024 10.698zm24.068 32.077l-6.478-3.454c-.02 0-.02 0-.024-.016l-25.08-13.337c-.004-.009-.016-.009-.037-.009-.088-.056-.168-.092-.228-.144.06-.04.148-.096.249-.149l10.028-5.381c1.71-.908 4.486-.285 5.65 1.245l15.92 21.245zm-35.008 15.008c-1.659 0-3.225-.313-4.297-.876l-25.619-13.172c-.06-.033-.116-.057-.172-.097.056-.016.112-.056.172-.092l21.382-11.458c2.16-1.149 6.514-1.165 8.687-.024h.016l25.14 13.393c.08.025.137.061.201.101-.08.052-.169.096-.257.148L147.89 139c-1.105.59-2.787.944-4.494.944zm25.161 22.052c.2.12.373.225.49.309a3.13 3.13 0 0 1-.474.354l-27.615 17.06c-2 1.241-6.165 1.337-8.229.193l-22.598-12.434a2.056 2.056 0 0 1-.325-.197c.092-.056.196-.116.325-.197l29.072-15.578c2.173-1.165 6.603-1.193 8.791-.076l9.085 4.67 11.478 5.896zm-95.241-14.361a.992.992 0 0 1-.265-.141l.281-.173 28.196-15.188c2.161-1.169 6.603-1.209 8.78-.081l25.622 13.177a.719.719 0 0 1 .173.092.51.51 0 0 0-.173.093l-29.06 15.574c-2.169 1.173-6.526 1.173-8.691 0l-24.863-13.353zm123.128-10.193c-1.169-1.55-3.161-3.406-5.325-5.097 0-1.988-1.338-3.775-1.928-4.574l-21.177-28.225c-1.538-2.036-3.791-3.47-6.329-4.088a9.362 9.362 0 0 0-1.815-6.755L151.838 78c-1.547-2.072-3.828-3.498-6.398-4.124.221-2.326-.462-4.711-2.064-6.659C132.536 54 128.97 54 127.81 54c-1.671 0-4.763 0-25.43 26.133-1.607 2.04-2.346 4.453-2.185 6.755-2.458.662-4.646 2.064-6.148 4.068l-11.185 14.907a9.323 9.323 0 0 0-1.811 6.719c-2.543.647-4.788 2.077-6.326 4.133l-14.662 19.546c-2.089 2.783-2.96 5.872-2.394 8.438a6.23 6.23 0 0 0 .594 1.562c-.136 2.121 1.414 4.032 2.161 4.928l18.277 22.064c1.623 1.948 3.96 3.309 6.546 3.88-.18 2.305.526 4.646 2.121 6.558l7.321 8.835c3.06 3.699 8.976 6.474 13.763 6.474h38.695c3.55 0 5.189-1.181 5.944-2.474 3.084-.317 5.943-1.723 7.839-3.984l17.514-21.104c1.309-1.579 3.273-4.37 3.546-7.016 1.976-.707 3.767-1.844 5.061-3.406l8.128-9.827c3.414-4.109 3.96-10.145 1.265-13.747z" opacity=".9" filter="url(#d)"/></svg>
